_includes/icons/ios-visa.svg

<svg fill="#666" height="50" viewBox="0 0 50 50" width="50" xmlns="http://www.w3.org/2000/svg"><path d="m5 7c-2.75 0-5 2.25-5 5v26c0 2.75 2.25 5 5 5h40c2.75 0 5-2.25 5-5v-26c0-2.75-2.25-5-5-5zm0 2h40c1.667969 0 3 1.332031 3 3v26c0 1.667969-1.332031 3-3 3h-40c-1.667969 0-3-1.332031-3-3v-26c0-1.667969 1.332031-3 3-3zm24.6875 10.40625c-3.101562 0-4.6875 1.527344-4.6875 3.46875 0 3.511719 4.0625 3.039063 4.0625 4.84375 0 .304688-.234375 1.03125-1.9375 1.03125-1.707031 0-2.8125-.65625-2.8125-.65625l-.53125 2.375s1.105469.625 3.21875.625 5.03125-1.617187 5.03125-3.96875c0-2.828125-4.0625-3.050781-4.0625-4.3125 0-.644531.5-1.125 1.96875-1.125.953125 0 2.03125.71875 2.03125.71875l.5-2.4375s-1.417969-.5625-2.78125-.5625zm-13.21875.21875-2.6875 7.9375s-.183594-.675781-.25-1.09375c-1.535156-3.445312-4.03125-4.71875-4.03125-4.71875l2.375 9h3.25l4.5-11.125zm4.3125 0-1.75 11.125h2.96875l1.78125-11.125zm16.03125 0-4.84375 11.125h2.9375l.59375-1.59375h3.6875l.3125 1.59375h2.6875l-2.28125-11.125zm-30.5625.03125s5.804688 1.796875 7.15625 6.15625l-1-5.0625s-.429687-1.09375-1.59375-1.09375zm31.6875 3.1875.8125 4.1875h-2.4375z"/></svg>

<svg xmlns="http://www.w3.org/2000/svg" viewBox="0 0 50 50" width="50" height="50" fill="#666"><path d="M 5 7 C 2.25 7 0 9.25 0 12 L 0 38 C 0 40.75 2.25 43 5 43 L 45 43 C 47.75 43 50 40.75 50 38 L 50 12 C 50 9.25 47.75 7 45 7 Z M 5 9 L 45 9 C 46.667969 9 48 10.332031 48 12 L 48 38 C 48 39.667969 46.667969 41 45 41 L 5 41 C 3.332031 41 2 39.667969 2 38 L 2 12 C 2 10.332031 3.332031 9 5 9 Z M 29.6875 19.40625 C 26.585938 19.40625 25 20.933594 25 22.875 C 25 26.386719 29.0625 25.914063 29.0625 27.71875 C 29.0625 28.023438 28.828125 28.75 27.125 28.75 C 25.417969 28.75 24.3125 28.09375 24.3125 28.09375 L 23.78125 30.46875 C 23.78125 30.46875 24.886719 31.09375 27 31.09375 C 29.113281 31.09375 32.03125 29.476563 32.03125 27.125 C 32.03125 24.296875 27.96875 24.074219 27.96875 22.8125 C 27.96875 22.167969 28.46875 21.6875 29.9375 21.6875 C 30.890625 21.6875 31.96875 22.40625 31.96875 22.40625 L 32.46875 19.96875 C 32.46875 19.96875 31.050781 19.40625 29.6875 19.40625 Z M 16.46875 19.625 L 13.78125 27.5625 C 13.78125 27.5625 13.597656 26.886719 13.53125 26.46875 C 11.996094 23.023438 9.5 21.75 9.5 21.75 L 11.875 30.75 L 15.125 30.75 L 19.625 19.625 Z M 20.78125 19.625 L 19.03125 30.75 L 22 30.75 L 23.78125 19.625 Z M 36.8125 19.625 L 31.96875 30.75 L 34.90625 30.75 L 35.5 29.15625 L 39.1875 29.15625 L 39.5 30.75 L 42.1875 30.75 L 39.90625 19.625 Z M 6.25 19.65625 C 6.25 19.65625 12.054688 21.453125 13.40625 25.8125 L 12.40625 20.75 C 12.40625 20.75 11.976563 19.65625 10.8125 19.65625 Z M 37.9375 22.84375 L 38.75 27.03125 L 36.3125 27.03125 Z"/></svg>
